X:8199
T:Youghal Quay
T:Miss Johnstone's Reel
O:england
R:reel
S:Kevin Finucane
M:C|
K:G
BdcA G2DG|GABA GBdg|fdcA G=FDE|=FGAB cAdc|
BdcA G2DG|GABA GABc|cBBA BGAG|^FGAB cAAc:|
|:Bdd^c d3=c|Bdga bg~g2|Bdd^c defg|a2fa gfdc:|


